src/assets/svg/4-news/5-max-save.svg

<svg width="27" height="31" viewBox="0 0 27 31" fill="none" xmlns="http://www.w3.org/2000/svg">
<path d="M5.50195 27.1251V5.65112C5.50195 5.13446 5.667 4.68237 5.99709 4.29487C6.32718 3.90737 6.71229 3.71362 7.15242 3.71362H19.2558C19.6959 3.71362 20.081 3.90737 20.4111 4.29487C20.7412 4.68237 20.9063 5.13446 20.9063 5.65112V27.1251L13.2041 23.2501L5.50195 27.1251ZM7.15242 24.1865L13.2041 21.1834L19.2558 24.1865V5.65112H7.15242V24.1865ZM7.15242 5.65112H19.2558H13.2041H7.15242Z" fill="#E9E8E8" fill-opacity="0.8"/>
</svg>

<svg width="27" height="31" fill="none" xmlns="http://www.w3.org/2000/svg"><path d="M5.502 27.125V5.651c0-.517.165-.969.495-1.356.33-.388.715-.581 1.155-.581h12.104c.44 0 .825.193 1.155.58.33.388.495.84.495 1.357v21.474l-7.702-3.875-7.702 3.875Zm1.65-2.939 6.052-3.003 6.052 3.003V5.651H7.152v18.535Zm0-18.535h12.104H7.152Z" fill="#E9E8E8" fill-opacity=".8"/></svg>
